public/angular.svg

<?xml version="1.0" encoding="utf-8"?><!-- Uploaded to: SVG Repo, www.svgrepo.com, Generator: SVG Repo Mixer Tools -->
<svg width="800px" height="800px" viewBox="0 0 32 32" fill="none" xmlns="http://www.w3.org/2000/svg">
<path d="M16 2L3 7L5 24L16 30L27 24L29 7L16 2Z" fill="#DD0031"/>
<path d="M16 2V30L27 24L29 7L16 2Z" fill="#C3002F"/>
<path d="M15.9998 5.09375L7.87305 23.3638H10.9031L12.5368 19.2757H19.4348L21.0685 23.3638H24.0986L15.9998 5.09375ZM18.3736 16.7557H13.626L15.9998 11.0298L18.3736 16.7557Z" fill="white"/>
</svg>

<svg xmlns="http://www.w3.org/2000/svg" width="800" height="800" fill="none" viewBox="0 0 32 32"><path fill="#DD0031" d="M16 2 3 7l2 17 11 6 11-6 2-17-13-5Z"/><path fill="#C3002F" d="M16 2v28l11-6 2-17-13-5Z"/><path fill="#fff" d="m16 5.094-8.127 18.27h3.03l1.634-4.088h6.898l1.634 4.088h3.03l-8.1-18.27Zm2.374 11.662h-4.748L16 11.03l2.374 5.726Z"/></svg>
